X:1
T: Star of the County Down, The
I:
C: W-1
C: Irish
M: 3/4
Z:
R: waltz
K: Am
EG| "Am"A4 A2| "F"A3 G A2| "C"c4 c2| "G"d4 cd| \
    "C"e3 d c2| "Am"A3 G E2| "Em"G6-| G2 c2 B2|
    "Am"A4 A2| "F"A3 G A2| "C"c4 c2| "G"d4 cd| \
    "Am"e3 d c2| "Dm"A4 G2| "Am"A6-| A4|]
\
e2| "C"g4 e2| e3 d c2| "G"d4 d2| d4 cd|\
    "Am"e3 d c2| A3 G E2| "Em"G6-| G2 c2 B2|
    "Am"A4 A2| "F"A3 G A2| "C"c4 c2| "G"d4 cd| \
    "Am"e3 d c2| "Dm"A4 G2| "Am"A6-| A4|]
%
